X:176
T: SAGT WO SIND DIE VEILCHEN HIN
N: F0311
O: Europa, Mitteleuropa, Deutschland
R: Jugend - Lied, Moral, Vergaenglichkeit
M: 2/4
L: 1/16
K: F
 | F3Fc2c2 | f2f2e4 |
d2c2f2Ad | B4A4 |
G2A2B2AG | c3BA4 |
G2F2B2A2 | A4G2z2 |
F4C2_A2G2F2 | f4f2e4z2
G4A2B4A2 | D6E6 | F6z6

@@@ Tune index: 5607
